public/icons/svg/layers.svg

<svg fill="none" height="20" viewBox="0 0 19 20" width="19" xmlns="http://www.w3.org/2000/svg"><path d="m9.5.25c-5.04656 0-9 2.30625-9 5.25v9c0 2.9438 3.95344 5.25 9 5.25 5.0466 0 9-2.3062 9-5.25v-9c0-2.94375-3.9534-5.25-9-5.25zm7.5 9.75c0 .9019-.7388 1.8216-2.0259 2.5238-1.4494.7903-3.3938 1.2262-5.4741 1.2262-2.08031 0-4.02469-.4359-5.47406-1.2262-1.28719-.7022-2.02594-1.6219-2.02594-2.5238v-1.56c1.59938 1.40625 4.33406 2.31 7.5 2.31 3.1659 0 5.9006-.9075 7.5-2.31zm-12.97406-7.02375c1.44937-.79031 3.39375-1.22625 5.47406-1.22625 2.0803 0 4.0247.43594 5.4741 1.22625 1.2871.70219 2.0259 1.62187 2.0259 2.52375s-.7388 1.82156-2.0259 2.52375c-1.4494.79031-3.3938 1.22625-5.4741 1.22625-2.08031 0-4.02469-.43594-5.47406-1.22625-1.28719-.70219-2.02594-1.62187-2.02594-2.52375s.73875-1.82156 2.02594-2.52375zm10.94816 14.04755c-1.4494.7903-3.3938 1.2262-5.4741 1.2262-2.08031 0-4.02469-.4359-5.47406-1.2262-1.28719-.7022-2.02594-1.6219-2.02594-2.5238v-1.56c1.59938 1.4063 4.33406 2.31 7.5 2.31 3.1659 0 5.9006-.9075 7.5-2.31v1.56c0 .9019-.7388 1.8216-2.0259 2.5238z" fill="#fff"/></svg>

<svg width="19" height="20" viewBox="0 0 19 20" fill="none" xmlns="http://www.w3.org/2000/svg">
<path d="M9.5 0.25C4.45344 0.25 0.5 2.55625 0.5 5.5V14.5C0.5 17.4438 4.45344 19.75 9.5 19.75C14.5466 19.75 18.5 17.4438 18.5 14.5V5.5C18.5 2.55625 14.5466 0.25 9.5 0.25ZM17 10C17 10.9019 16.2612 11.8216 14.9741 12.5238C13.5247 13.3141 11.5803 13.75 9.5 13.75C7.41969 13.75 5.47531 13.3141 4.02594 12.5238C2.73875 11.8216 2 10.9019 2 10V8.44C3.59938 9.84625 6.33406 10.75 9.5 10.75C12.6659 10.75 15.4006 9.8425 17 8.44V10ZM4.02594 2.97625C5.47531 2.18594 7.41969 1.75 9.5 1.75C11.5803 1.75 13.5247 2.18594 14.9741 2.97625C16.2612 3.67844 17 4.59812 17 5.5C17 6.40188 16.2612 7.32156 14.9741 8.02375C13.5247 8.81406 11.5803 9.25 9.5 9.25C7.41969 9.25 5.47531 8.81406 4.02594 8.02375C2.73875 7.32156 2 6.40188 2 5.5C2 4.59812 2.73875 3.67844 4.02594 2.97625ZM14.9741 17.0238C13.5247 17.8141 11.5803 18.25 9.5 18.25C7.41969 18.25 5.47531 17.8141 4.02594 17.0238C2.73875 16.3216 2 15.4019 2 14.5V12.94C3.59938 14.3463 6.33406 15.25 9.5 15.25C12.6659 15.25 15.4006 14.3425 17 12.94V14.5C17 15.4019 16.2612 16.3216 14.9741 17.0238Z" fill="white"/>
</svg>
